build/img/sprite/discord.svg

<svg width="24" height="24" viewBox="0 0 24 24" fill="none" xmlns="http://www.w3.org/2000/svg">
<path fill-rule="evenodd" clip-rule="evenodd" d="M18.9308 5.64368C17.6561 5.05878 16.2892 4.62785 14.8599 4.38104C14.8339 4.37628 14.8079 4.38818 14.7945 4.41199C14.6187 4.72467 14.4239 5.13258 14.2876 5.4532C12.7503 5.22306 11.221 5.22306 9.71527 5.4532C9.57887 5.12546 9.37707 4.72467 9.20048 4.41199C9.18707 4.38898 9.16107 4.37707 9.13504 4.38104C7.70659 4.62706 6.33963 5.05799 5.06411 5.64368C5.05307 5.64844 5.04361 5.65639 5.03732 5.6667C2.44449 9.54033 1.73421 13.3188 2.08265 17.0503C2.08423 17.0686 2.09447 17.086 2.10867 17.0971C3.81934 18.3534 5.47642 19.1161 7.10273 19.6216C7.12876 19.6296 7.15634 19.62 7.1729 19.5986C7.55761 19.0733 7.90054 18.5193 8.19456 17.9368C8.21192 17.9027 8.19535 17.8622 8.15989 17.8487C7.61594 17.6424 7.098 17.3908 6.59977 17.1051C6.56037 17.0821 6.55721 17.0257 6.59346 16.9987C6.69831 16.9202 6.80318 16.8384 6.9033 16.7559C6.92141 16.7408 6.94665 16.7376 6.96794 16.7471C10.2411 18.2415 13.7846 18.2415 17.0191 16.7471C17.0404 16.7368 17.0657 16.74 17.0846 16.7551C17.1847 16.8376 17.2895 16.9202 17.3952 16.9987C17.4314 17.0257 17.4291 17.0821 17.3897 17.1051C16.8914 17.3963 16.3735 17.6424 15.8288 17.8479C15.7933 17.8614 15.7775 17.9027 15.7949 17.9368C16.0952 18.5185 16.4381 19.0724 16.8157 19.5978C16.8315 19.62 16.8599 19.6296 16.8859 19.6216C18.5201 19.1161 20.1772 18.3534 21.8879 17.0971C21.9028 17.086 21.9123 17.0694 21.9139 17.0511C22.3309 12.737 21.2154 8.98957 18.9568 5.66749C18.9513 5.65639 18.9419 5.64844 18.9308 5.64368ZM8.68335 14.7782C7.69792 14.7782 6.88594 13.8735 6.88594 12.7624C6.88594 11.6513 7.68217 10.7466 8.68335 10.7466C9.69239 10.7466 10.4965 11.6593 10.4807 12.7624C10.4807 13.8735 9.68451 14.7782 8.68335 14.7782ZM13.5316 12.7624C13.5316 13.8735 14.3435 14.7782 15.329 14.7782C16.338 14.7782 17.1264 13.8735 17.1264 12.7624C17.1421 11.6593 16.338 10.7466 15.329 10.7466C14.3278 10.7466 13.5316 11.6513 13.5316 12.7624Z" fill="white"/>
</svg>

<svg width="24" height="24" fill="none" xmlns="http://www.w3.org/2000/svg"><path fill-rule="evenodd" clip-rule="evenodd" d="M18.93 5.644a16.491 16.491 0 0 0-4.07-1.263.062.062 0 0 0-.066.031c-.175.313-.37.72-.506 1.041a15.226 15.226 0 0 0-4.573 0A10.54 10.54 0 0 0 9.2 4.412a.064.064 0 0 0-.065-.031 16.447 16.447 0 0 0-4.07 1.263.058.058 0 0 0-.028.023C2.444 9.54 1.734 13.319 2.083 17.05a.069.069 0 0 0 .026.047 16.584 16.584 0 0 0 4.994 2.525.065.065 0 0 0 .07-.023c.385-.526.728-1.08 1.022-1.662a.063.063 0 0 0-.035-.088 10.917 10.917 0 0 1-1.56-.744.064.064 0 0 1-.007-.106c.105-.079.21-.16.31-.243a.062.062 0 0 1 .065-.009c3.273 1.494 6.817 1.494 10.051 0a.062.062 0 0 1 .066.008c.1.083.204.165.31.244a.064.064 0 0 1-.005.106c-.499.291-1.017.537-1.561.743a.064.064 0 0 0-.034.089c.3.581.643 1.135 1.02 1.66a.063.063 0 0 0 .07.025 16.53 16.53 0 0 0 5.003-2.525.064.064 0 0 0 .026-.046c.417-4.314-.699-8.061-2.957-11.384a.05.05 0 0 0-.026-.023ZM8.684 14.778c-.985 0-1.797-.905-1.797-2.016 0-1.11.796-2.015 1.797-2.015 1.01 0 1.813.912 1.798 2.015 0 1.111-.796 2.016-1.798 2.016Zm4.849-2.016c0 1.111.812 2.016 1.797 2.016 1.009 0 1.797-.905 1.797-2.016.016-1.103-.788-2.015-1.797-2.015-1.001 0-1.797.904-1.797 2.015Z" fill="#fff"/></svg>
